!!!Genre:	Freylekhs
!!!Mode:	Altered Dorian
!!!Listening/dance:	dance
!!!:	*g:; *G:; *g:
!!!One_Mode:	no
**kern
*part1
*staff1
*clefG2
*k[b-e-]
*>bM
*g:dor
=7:|!|:
*>B
*k[b-]
(>16aLL
16b-
16cc#X
16ddJJ)
(>8.cc#L
16b-Jk)
=8
(>16b-LL
16a)
(>16ccn
16b-JJ)
(<16b-LL
16a)
(<16a
16gJJ)
=9
16aLL
16b-
16cc#X
16ddJJ
8cc#L
16b-L
16aJJ
=10
4g
4gg
=11
16aLL
16b-
16cc#X
16ddJJ
8.cc#L
16b-Jk
=12
(>16b-LL
16a)
(>16ccn
16b-JJ)
(<16b-LL
16a)
(<16a
16gJJ)
=13
16aLL
16b-
16cc#X
16ddJJ
8cc#L
16b-L
16aJJ
=14
2g
=15:|!
4.g
8cc#X
=16!|:
*>C
(>4.dd
8cc#X)
=17
(>4.dd
8cc#X)
=18
(>8.ddmL
16cc#XJk)
(>8.ddmL
16cc#XJk)
=19
4.dd
8dd
=20
16cc#XLL
16dd
16ee
16ffJJ
16eeLL
16dd
16cc#
16eeJJ
=21
8ddL
16ddL
16ddJJ
16ddLL
16dd
16dd
16ddJJ
=22
16cc#XLL
16dd
16ee
16ffJJ
16eeLL
16dd
16cc#
16eeJJ
=23
4.dd
8dd
=24
(>8.ggL
16ffJk)
(>16ffLL
16ee)
(>16ee
16ddJJ)
=25
(>8.ggL
16ffJk)
(>16ffLL
16ee)
(>16ee
16ddJJ)
=26
16cc#XLL
16dd
16ee
16ffJJ
16eeLL
16dd
16cc#
16eeJJ
=27
4.dd
8b-
=28
4dd
(>8qcc#X/
8ddL)
(>8qcc#/
8ddJ)
=29
4.cc#X
24b-LL
24a
24b-JJ
=30
4dd
(>8qcc#X/
8ddL)
(>8qcc#/
8ddJ)
=31
8cc#XL
8b-J
8aL
8gJ
=32
4dd
(>8qcc#X/
8ddL)
(>8qcc#/
8ddJ)
=33
4.cc#X
24b-LL
24a
24b-JJ
=34
4dd
(>8qcc#X/
8ddL)
(>8qee/
8ddJ)
=35
(>8cc#XL
8b-J)
8aL
8gJ
=36
4.g
(<16aLL
16b-JJ)
=37
4.g
(<16aLL
16b-JJ)
=38
8gL
(<16aL
16b-JJ)
(8gL
<16aL
16b-JJ)
=39
4.g
8d
*>bM
*-
